X:919
L:1/8
M:2/4
K:G
"^A""G" B/c/d/e/ dB | dB de/d/ |"D7" ca b>a |"G" ge' d'2 | B/c/d/e/ dB | dB d^c/B/ | 
"D" Af"A7" g>^c |1"D" .d2"D7" c2 :|2"D" df/e/ .d2"^B" |:"D7" c/a/a b>a |"G" gB/c/ d2 | 
"E7" (d/b/).b c'>b |"Am" ac/d/ e2 |"D7" (e/d/).d fa |"G" (c'/b/).b d'2 |"D7" (b/a/).a d'>f | 
"G" gb/a/ .g2 ::[K:C]"^C""C" e>f ga | ge/f/ g^g |"F" ab c'>a |"C" (g2 e)a/g/ |"G7" .f !>!B2 b/a/ | 
"C" .g !>!e2 c'/b/ |"F" a/g/f/e/"G7" dg |"C" cc c"_Fine" z :|"^D""E7" e^G Ge |"Am" eA Ae | 
"E7" ed cB |"Am" dc A2 |"D7" d^F Fd |"G" dG Gd |"D7" d>c B>A |"G7" G2"_>Teil C" !>!F2 |]

